X:21
T:The Rakish Highlander
T:Th Mountain Lark
R:reel
S:Clare FM
D: Gerry Harrington & Charlie Piggot- The New Road
B:i.Ryan's Mammoth, ii. O'Neill's Music of Ireland
Z:psc -  http://www.cranfordpub.com
L:1/8
Q:333
M:C|
K:Edor
EBBA (3(Bcd) ef|dfBd ADFD|EBBA (3(Bcd) ef|dBAF BEED|
EBBA (3(Bcd) ef|dfBd ADFD|EBBA (3(Bcd) ef|fefd Bee||
||f|eB ~B2 efge|fdad bdad|eB ~B2 efge|fedf e2 ef|
eB ~B2 efge|fdad bdaf|~g3 e fgfe|dBAF ~E3 D|]
